X:227
T:Fair Haired Boy, The
R:reel
D:Music of Dreams
Z:transcribed by Dave Marshall
M:C|
K:D
|: A3G FGAB | =c2dc BGG2 | A3G FAdg | fdec Add2 :|
| f2df efde | f2df ecA2 | f2df efde | fdec Add2 |
f2df efde | f2df edcB | ABcd efge | a2ge fdd2 |
